X:1
T:Deus tu scis
T:Deus tu scis
T:Orlando di Lasso
T:Source : Magnum opus musicum(1604)---München---First print A.Berg---1575 Editor : André Vierendeels (10/04/15).
T:Notes : Original clefs : C1,  C4, F3 Editorial accidentals above the staff Original note values have been halved Square bracket indicates ligature Music collected by Ferdinando and Rodolpho di Lasso
C:Orlando di Lasso
%%score [ 1 [ 2 3 ] ]
L:1/8
Q:1/4=96
M:2/2
K:F
V:1 treble nm="Superius" snm="S"
V:2 treble-8 nm="Tenor 1" snm="T 1"
V:3 treble-8 nm="Tenor 2" snm="T 2"
V:1
 z4 A4 | A4 z2 F2- | FG AB c2 F2- | F2 B2 A2 A2 | A3 A FE DC | D2 B3 A d2- | %6
w: De-|us, tu|_ _ _ _ scis in-|* si- pi- en-|ti- am _ _ _ _|me- * * *|
"^-natural" dc/B/ c2 d2 A2- | A2 G2 F3 F | B2 A2 z2 d2- | d2 c2 B2 A2 | B4 A2 G2- | G2 F2 E2 DE | %12
w: * * * * am et|_ de- li- cta|me- a, et|_ de- li- cta|me a, et|_ de- li- cta _|
 FE F3 E/D/ E2 | F8 | E4 D3 E | FG A3 B c2 | G2 A2 DE FG | A2 G2 F3 E/D/ | E3 E D4 | z8 | z8 | %21
w: _ _ _ _ _ _|me-|a, a _|_ _ _ _ _|te non sunt _ _ _|_ ab- scon- * *|* di- ta,|||
 B4 A2 A2 | G4 F4 | A4 G2 G2 | F4 E2 G2 | F2 F2 E4 | D4 A4 | G2 G2 F4 | E3 D/C/ D2 F2 | %29
w: non e- ru-|be- scant,|non e- ru-|be- scanr, non|e- ru- be-|scant, non|e- ru- be-|scant _ _ _ in|
 E2 E2 F2 A2- | AG/F/ G2 A2 c2 | d2 B2 A4 | z4 z2 E2 | F2 A3 G/F/ G2 | A3 B/c/ d4 | c2 F3 E FD | %36
w: me, qui ex- spe-|* * * * ctant te,-|Do- mi- ne,|qui|ex- spe- * * *|ctant _ _ _|te, Do- * * *|
 E2 E2 F4- | F4 B4 | B2 A4 B2 | G4 F3 G | A4 z4 | z4 z2 A2- | A2 E2 G2 A2 | F3 G AB c2- | %44
w: * mi- ne,|_ Do-|mi- ne vir-|tu- tum, _|_|Do|_ mi- ne vir-|tu- * * * *|
 cB A3 G/F/ G2 | F2 A4 D2 | G2 G2 F4 | A2 c4 F2 | F2 D2 FE FG | A2 E2 z4 | z4 G4 | D2 F2 A4 | %52
w: |tum, Do- mi-|ne vir- tu-|tum, Do- mi-|ne vir- tu- * * *|* tum,|Do-|mi- ne vir-|
 G2 F2 F3 F | E2 F2 D4 | !fermata!^C8 |] %55
w: tu- tum, Do- mi-|ne vir- tu-|tum.|
V:2
 A4 A4 | z2 f3 e dc | B2 cB AG A2 | d4 c2 c2 | c3 c d2 GA | Bc de f4 | e4 d2 f2- | f2 e2 d2 c2 | %8
w: De- us,|tu _ _ _|_ scis _ _ _ _|in- si- pi-|en- ti- am me- *||* am et|_ de- li- cta|
 d4 d2 f2- | f2 e2 d2 c2 | d3 e f2 c2 | z2 c4 B2 | A8 | d2 c3 B/A/ B2 | c2 G3 A Bc | de f2 c3 d | %16
w: me- a, et|_ de- li- cta|me- * * a,|et de-|li-|cta me- * * *|a, a _ _ _|_ _ _ te _|
 e2 f4 d2 | f2 e3 d d2- | d2 c2 d4 | f4 e2 e2 | d4 c2 fe | dc d3 c f2- | fe/d/ e2 f4 | z4 z2 d2- | %24
w: _ non sunt|ab- scon- * *|* di- ta,|non e- ru-|be- scant in _|_ _ _ _ _|* * * * me,|non|
 d2 c2 c2 B2- | B2 A3 B c2- | cB/A/ B2 cA d2- |"^-natural" dc/B/ c2 d4 | z2 A2 B2 d2- | %29
w: _ e- ru- be-|* scant _ _|_ _ _ _ in _ _|_ _ _ _ me,|qui ex- spe-|
"^-natural" dc/B/ c2 d4 | B4 f3 f | f4 z2 e2 |"^-natural" f2 d3 c/B/ c2 | d2 f2 d2 c2 | %34
w: * * * * ctant|te Do- mi-|ne, qui|ex- spe- * * *|ctant te Do- mi-|
 c3 B/A/ B4 | z2 A2 B2 d2- |"^-natural""^b" dc/B/ c2 dc BA | B2 A2 GA Bc | de f3 e d2- | %39
w: ne, _ _ _|qui ex- spe-|* * * * ctant _ _ _|_ te, Do- * * *||
 d2 c2 d2 d2- | d2 A2 c2 d2 | B4 A4 | z8 | z2 d4 A2 | c2 d2 B4 | A3 B cA B2- | B2 AG A2 d2- | %47
w: * mi- ne, Do-|* mi- ne vir-|tu- tum,||Do- mi-|ne vir- tu-|tum, _ _ _ _|_ _ _ _ Do-|
 d2 A2 c2 d2 | B4 A4 | c4 G2 A2 | F2 f3 e/d/ e2 | f2 d4 A2 | c2 d2 BA c2- | cB A3 G/F/ G2 | %54
w: * mi- ne vir-|tu- tum,|Do- mi- ne|vir- tu- * * *|tum, Do- mi-|ne vir- tu- * *||
 !fermata!A8 |] %55
w: tum.|
V:3
 z8 | D4 D4 | z2 F3 E DC | B,4 F2 F2 | F2 F2 B3 A | G2 G2 D4 | A4 D4 | B6 A2 | G2 F2 B4 | %9
w: |De- us,|tu _ _ _|_ scis in-|si- pi- en- *|* ti- am|me- am|et de-|li- cta me-|
 A4 z2 A2- | A2 G2 F2 E2 | A4 G4 | z2 D4 C2 | B,2 A,2 D4 | C4 z4 | D3 E FG AB | c2 A2 B4 | %17
w: a, et|_ de- li- cta|me- a,|et de-|li- cta me-|a,|a _ _ _ _ _|_ te non|
 A2 c2 d2 B2 | A4 z2 B2- | B2 A2 A2 G2- | G2 F3 E DC | B,4 F4 | c4 z2 d2- | d2 c2 c2 B2- | %24
w: sunt ab- scon- di-|ta, non|_ e- ru- be-|scant _ _ _ _|_ in|me, non|_ e- ru- be-|
 B2 A4 G2 | D4 z4 | G4 F2 F2 | E4 D2 d2- | dc cB/A/ GF/E/ D2 | A4 z4 | z4 z2 A2 | %31
w: * scant in|me,|non e- ru-|be- scant in|_ _ _ _ _ _ _ _ _|me,|qui|
"^-natural" B2 d3 c/B/ c2 | d2 B2 G2 A2 | D4 z2 E2 | F2 A3 G/F/ G2 | A2 c2 d3 c/B/ | A2 A2 D4- | %37
w: ex- spe- * * *|ctant te Do- mi-|ne, qui|ex- spe- * * *|* ctant te _ _|Do- mi- ne,|
 D4 z2 G2- | G2 D2 F2 G2 | _E4 D4 | z2 F4 B,2 | D2 E2 F3 G | AB c3 B cA | d2 B2 z4 | z4 d4 | %45
w: _ Do-|* mi- ne vir-|tu- tum,|Do- mi-|ne vir- tu- *||* tum,|Do-|
 D2 F4 G2 | _E4 D4 | z8 | z4 z2 F2- | F2 C2 E2 F2 | D4 C4 | z8 | z2 D4 A,2 | C2 D2 B,4 | %54
w: mi- ne vir-|tu- tum,||Do-|* mi- ne vir-|tu- tum,||Do- mi-|ne vir- tu-|
 !fermata!A,8 |] %55
w: tum.|

